X:1
T:The Cockled Old Man [1]
L:1/8
M:6/8
I:linebreak $
K:C
V:1 treble 
V:1
 B | cAd cAG | EDE GAB | cAd cAG | EAA (A2 B) | cAd cAG | EDE cde | (ef)e ded |$ cAG A2 :: ^f | %10
 gfa ged | cAB cde | (ea)(a a)ge | edd (d2 f) | gfa ged | cAB cde |$ (e<=f)e ded | cAG A2 :| %18
